tools/download-figma-icons/icons/outlined-medium/faq.svg

<svg width="25" height="24" viewBox="0 0 25 24" fill="none" xmlns="http://www.w3.org/2000/svg">
<path fill-rule="evenodd" clip-rule="evenodd" d="M16.7921 3.47703C18.0594 4.7429 18.7714 6.45979 18.7714 8.25C18.7714 9.13642 18.5966 10.0142 18.257 10.8331C17.9174 11.6521 17.4196 12.3962 16.7921 13.023C16.1646 13.6498 15.4196 14.147 14.5998 14.4862C13.7799 14.8254 12.9011 15 12.0137 15H11.8035C10.5946 18 6.3222 18.75 6.12698 18.75H6.00684C5.89351 18.74 5.78393 18.7045 5.68637 18.646C5.58882 18.5875 5.50584 18.5077 5.4437 18.4125C5.36724 18.3045 5.32071 18.1783 5.30885 18.0466C5.29698 17.9149 5.32019 17.7824 5.37612 17.6625C5.74013 16.8028 5.95348 15.8869 6.00684 14.955C4.29594 14.7568 2.72538 13.9135 1.61603 12.5975C0.506676 11.2815 -0.0577271 9.59201 0.0381312 7.87427C0.133989 6.15654 0.882874 4.54018 2.13178 3.35546C3.38068 2.17073 5.03535 1.50704 6.7577 1.5H12.0137C13.806 1.5 15.5248 2.21116 16.7921 3.47703ZM11.2628 13.5H12.0137C13.4077 13.5 14.7446 12.9469 15.7302 11.9623C16.7159 10.9777 17.2697 9.64239 17.2697 8.25C17.2697 6.85761 16.7159 5.52226 15.7302 4.53769C14.7446 3.55312 13.4077 3 12.0137 3H6.7577C5.36372 3 4.02684 3.55312 3.04115 4.53769C2.05546 5.52226 1.5017 6.85761 1.5017 8.25C1.5017 9.64239 2.05546 10.9777 3.04115 11.9623C4.02684 12.9469 5.36372 13.5 6.7577 13.5C6.95684 13.5 7.14782 13.579 7.28863 13.7197C7.42945 13.8603 7.50856 14.0511 7.50856 14.25C7.48634 15.1475 7.36803 16.0401 7.15565 16.9125C8.39457 16.4925 10.1215 15.6375 10.512 14.07C10.5531 13.9036 10.65 13.7563 10.7866 13.6526C10.9233 13.5488 11.0913 13.495 11.2628 13.5ZM5.25592 6H12.7645C12.9636 6 13.1546 6.07902 13.2954 6.21967C13.4362 6.36032 13.5153 6.55109 13.5153 6.75C13.5153 6.94891 13.4362 7.13968 13.2954 7.28033C13.1546 7.42098 12.9636 7.5 12.7645 7.5H5.25592C5.05678 7.5 4.8658 7.42098 4.72499 7.28033C4.58417 7.13968 4.50507 6.94891 4.50507 6.75C4.50507 6.55109 4.58417 6.36032 4.72499 6.21967C4.8658 6.07902 5.05678 6 5.25592 6ZM23.0702 12.0925C23.7034 12.9914 24.0382 14.066 24.0274 15.1649C24.0227 16.2131 23.6963 17.2346 23.092 18.0916C22.4878 18.9486 21.635 19.5999 20.6485 19.9574C20.6255 20.4495 20.7181 20.94 20.9188 21.3899C20.9847 21.504 21.0194 21.6333 21.0194 21.7649C21.0194 21.8966 20.9847 22.0259 20.9188 22.1399C20.8515 22.2505 20.7566 22.3418 20.6434 22.4049C20.5303 22.4679 20.4027 22.5007 20.2731 22.4999C19.5534 22.4893 18.8495 22.2879 18.2334 21.9162C17.6173 21.5446 17.1111 21.0162 16.7666 20.3849H16.3837C15.4819 20.4083 14.5934 20.1644 13.8304 19.6838C13.0673 19.2033 12.4639 18.5077 12.0963 17.6849C12.0234 17.5101 12.0194 17.3142 12.0851 17.1366C12.1509 16.959 12.2814 16.8128 12.4506 16.7273C12.6198 16.6419 12.8151 16.6235 12.9973 16.6759C13.1795 16.7284 13.335 16.8477 13.4328 17.0099C13.6796 17.5821 14.093 18.0669 14.6192 18.4013C15.1455 18.7357 15.7603 18.9042 16.3837 18.8849H17.3523C17.4046 18.8778 17.4576 18.8778 17.5099 18.8849C17.5499 18.8807 17.5902 18.8807 17.6301 18.8849C17.6759 18.9071 17.7188 18.9348 17.7577 18.9674C17.7975 18.9883 17.8331 19.0163 17.8629 19.0499C17.9186 19.1304 17.9712 19.2129 18.0205 19.2974C18.1175 19.6003 18.2746 19.8805 18.4822 20.1214C18.6899 20.3624 18.944 20.5591 19.2294 20.6999C19.1705 20.2343 19.1705 19.7631 19.2294 19.2974C19.2515 19.1475 19.3186 19.0077 19.4218 18.8966C19.525 18.7855 19.6595 18.7082 19.8076 18.6749C20.5868 18.4749 21.277 18.0212 21.7692 17.3855C22.2615 16.7499 22.5276 15.9685 22.5257 15.1649C22.5426 14.3848 22.312 13.6194 21.867 12.9782C21.4219 12.3369 20.7851 11.8527 20.0478 11.5949C19.9532 11.5654 19.8653 11.5175 19.7891 11.454C19.713 11.3906 19.6501 11.3127 19.6041 11.225C19.5581 11.1372 19.5298 11.0413 19.5209 10.9426C19.512 10.8439 19.5227 10.7445 19.5523 10.6499C19.5819 10.5554 19.6298 10.4676 19.6933 10.3915C19.7569 10.3155 19.8348 10.2527 19.9227 10.2067C20.0105 10.1608 20.1066 10.1325 20.2054 10.1236C20.3041 10.1148 20.4037 10.1254 20.4984 10.1549C21.5376 10.516 22.4371 11.1937 23.0702 12.0925ZM9.76106 9H5.25592C5.05678 9 4.8658 9.07902 4.72499 9.21967C4.58417 9.36032 4.50507 9.55109 4.50507 9.75C4.50507 9.94891 4.58417 10.1397 4.72499 10.2803C4.8658 10.421 5.05678 10.5 5.25592 10.5H9.76106C9.9602 10.5 10.1512 10.421 10.292 10.2803C10.4328 10.1397 10.5119 9.94891 10.5119 9.75C10.5119 9.55109 10.4328 9.36032 10.292 9.21967C10.1512 9.07902 9.9602 9 9.76106 9Z" fill="black"/>
</svg>

<svg xmlns="http://www.w3.org/2000/svg" width="25" height="24" fill="none" viewBox="0 0 25 24"><path fill="currentColor" fill-rule="evenodd" d="M16.792 3.477a6.746 6.746 0 0 1-2.192 11.01 6.8 6.8 0 0 1-2.586.513h-.21c-1.21 3-5.482 3.75-5.677 3.75h-.12a.75.75 0 0 1-.563-.337.75.75 0 0 1-.068-.75c.364-.86.577-1.776.63-2.708a6.76 6.76 0 0 1-4.39-2.357 6.745 6.745 0 0 1 .516-9.243A6.76 6.76 0 0 1 6.758 1.5h5.256c1.792 0 3.51.711 4.778 1.977M11.262 13.5h.752c1.394 0 2.73-.553 3.716-1.538A5.247 5.247 0 0 0 12.014 3H6.758a5.26 5.26 0 0 0-3.717 1.538 5.247 5.247 0 0 0 0 7.424A5.26 5.26 0 0 0 6.758 13.5a.75.75 0 0 1 .75.75c-.022.898-.14 1.79-.352 2.663 1.239-.42 2.965-1.276 3.356-2.843a.75.75 0 0 1 .75-.57M5.257 6h7.509a.751.751 0 0 1 .53 1.28.75.75 0 0 1-.53.22h-7.51a.751.751 0 0 1-.53-1.28.75.75 0 0 1 .53-.22m17.814 6.092c.633.9.968 1.974.957 3.073a5.12 5.12 0 0 1-3.379 4.792c-.023.492.07.983.27 1.433a.75.75 0 0 1 0 .75.75.75 0 0 1-.645.36 4.06 4.06 0 0 1-3.506-2.115h-.383a4.57 4.57 0 0 1-4.288-2.7.75.75 0 0 1 .901-1.01.75.75 0 0 1 .436.335 3.11 3.11 0 0 0 2.95 1.875h.97a.6.6 0 0 1 .157 0 .6.6 0 0 1 .12 0q.07.034.128.082.06.033.105.083.084.12.157.247a2.37 2.37 0 0 0 1.21 1.403 5.6 5.6 0 0 1 0-1.403.75.75 0 0 1 .578-.622 3.62 3.62 0 0 0 2.718-3.51 3.695 3.695 0 0 0-2.478-3.57.755.755 0 1 1 .45-1.44 5.26 5.26 0 0 1 2.572 1.938M9.761 9H5.256a.751.751 0 0 0-.531 1.28c.14.141.332.22.53.22h4.506a.751.751 0 1 0 0-1.5" clip-rule="evenodd"/></svg>
